svg/700/outlined/pending-fill.svg

<svg xmlns="http://www.w3.org/2000/svg" width="48" height="48" viewBox="0 -960 960 960"><path d="M275.118-430Q296-430 310.5-444.618q14.5-14.617 14.5-35.5Q325-501 310.382-515.5q-14.617-14.5-35.5-14.5Q254-530 239.5-515.382q-14.5 14.617-14.5 35.5Q225-459 239.618-444.5q14.617 14.5 35.5 14.5Zm205 0Q501-430 515.5-444.618q14.5-14.617 14.5-35.5Q530-501 515.382-515.5q-14.617-14.5-35.5-14.5Q459-530 444.5-515.382q-14.5 14.617-14.5 35.5Q430-459 444.618-444.5q14.617 14.5 35.5 14.5Zm204 0Q705-430 719.5-444.618q14.5-14.617 14.5-35.5Q734-501 719.382-515.5q-14.617-14.5-35.5-14.5Q663-530 648.5-515.382q-14.5 14.617-14.5 35.5Q634-459 648.618-444.5q14.617 14.5 35.5 14.5ZM480.404-55q-88.872 0-166.125-33.084-77.254-33.083-135.183-91.012-57.929-57.929-91.012-135.119Q55-391.406 55-480.362q0-88.957 33.084-166.285 33.083-77.328 90.855-134.809 57.772-57.482 135.036-91.013Q391.238-906 480.279-906q89.04 0 166.486 33.454 77.446 33.453 134.853 90.802 57.407 57.349 90.895 134.877Q906-569.34 906-480.266q0 89.01-33.531 166.247-33.531 77.237-91.013 134.86-57.481 57.623-134.831 90.891Q569.276-55 480.404-55Z"/></svg>

<svg xmlns="http://www.w3.org/2000/svg" width="48" height="48" viewBox="0 -960 960 960"><path d="M275.12-430q20.88 0 35.38-14.62 14.5-14.62 14.5-35.5 0-20.88-14.62-35.38-14.62-14.5-35.5-14.5-20.88 0-35.38 14.62-14.5 14.62-14.5 35.5 0 20.88 14.62 35.38 14.62 14.5 35.5 14.5Zm205 0q20.88 0 35.38-14.62 14.5-14.62 14.5-35.5 0-20.88-14.62-35.38-14.62-14.5-35.5-14.5-20.88 0-35.38 14.62-14.5 14.62-14.5 35.5 0 20.88 14.62 35.38 14.62 14.5 35.5 14.5Zm204 0q20.88 0 35.38-14.62 14.5-14.62 14.5-35.5 0-20.88-14.62-35.38-14.62-14.5-35.5-14.5-20.88 0-35.38 14.62-14.5 14.62-14.5 35.5 0 20.88 14.62 35.38 14.62 14.5 35.5 14.5ZM480.4-55q-88.87 0-166.12-33.08-77.25-33.09-135.18-91.02-57.93-57.93-91.02-135.12Q55-391.41 55-480.36q0-88.96 33.08-166.29 33.09-77.32 90.86-134.81 57.77-57.48 135.03-91.01Q391.24-906 480.28-906t166.49 33.45q77.44 33.46 134.85 90.81t90.89 134.87Q906-569.34 906-480.27q0 89.01-33.53 166.25t-91.01 134.86q-57.49 57.62-134.83 90.89Q569.28-55 480.4-55Z"/></svg>
